svgs/regular/sensor-on.svg

<svg xmlns="http://www.w3.org/2000/svg" viewBox="0 0 640 512"><!--! Font Awesome Pro 6.1.1 by @fontawesome - https://fontawesome.com License - https://fontawesome.com/license (Commercial License) Copyright 2022 Fonticons, Inc. --><path d="M616 232h-80C522.8 232 512 242.8 512 256c0 13.25 10.75 24 24 24h80C629.3 280 640 269.2 640 256C640 242.8 629.3 232 616 232zM536 144c4.75 0 9.375-1.375 13.25-4l48-32c7.375-4.625 11.75-12.88 11.25-21.62C608 77.62 602.9 69.88 595 66c-7.875-3.75-17.25-3-24.38 2.125l-48 32c-8.75 5.875-12.63 16.75-9.5 26.88C516.1 137.1 525.5 144 536 144zM549.3 372c-11-7.375-25.88-4.375-33.25 6.75c-7.375 11-4.375 25.87 6.75 33.25l48 32c11 7.375 25.88 4.375 33.25-6.75c7.375-11 4.375-25.87-6.75-33.25L549.3 372zM120 128C106.8 128 96 138.8 96 152v112C96 277.2 106.8 288 120 288S144 277.2 144 264v-112C144 138.8 133.2 128 120 128zM200 128C186.8 128 176 138.8 176 152v112C176 277.2 186.8 288 200 288S224 277.2 224 264v-112C224 138.8 213.2 128 200 128zM384 32H64C28.62 32 0 60.62 0 96v320c0 35.38 28.62 64 64 64h320c35.38 0 64-28.62 64-64V96C448 60.62 419.4 32 384 32zM400 416c0 8.875-7.125 16-16 16H64c-8.875 0-16-7.125-16-16V96c0-8.875 7.125-16 16-16h320c8.875 0 16 7.125 16 16V416z"/></svg>

<svg xmlns="http://www.w3.org/2000/svg" viewBox="0 0 640 512"><!--! Font Awesome Pro 6.4.2 by @fontawesome - https://fontawesome.com License - https://fontawesome.com/license (Commercial License) Copyright 2023 Fonticons, Inc. --><path d="M384 80c8.8 0 16 7.2 16 16V416c0 8.8-7.2 16-16 16H64c-8.8 0-16-7.2-16-16V96c0-8.8 7.2-16 16-16H384zM64 32C28.7 32 0 60.7 0 96V416c0 35.3 28.7 64 64 64H384c35.3 0 64-28.7 64-64V96c0-35.3-28.7-64-64-64H64zm56 96c-13.3 0-24 10.7-24 24V264c0 13.3 10.7 24 24 24s24-10.7 24-24V152c0-13.3-10.7-24-24-24zm96 0c-13.3 0-24 10.7-24 24V264c0 13.3 10.7 24 24 24s24-10.7 24-24V152c0-13.3-10.7-24-24-24zm381.3-20c11-7.4 14-22.3 6.7-33.3s-22.3-14-33.3-6.7l-48 32c-11 7.4-14 22.3-6.7 33.3s22.3 14 33.3 6.7l48-32zM536 232c-13.3 0-24 10.7-24 24s10.7 24 24 24h80c13.3 0 24-10.7 24-24s-10.7-24-24-24H536zm13.3 140c-11-7.4-25.9-4.4-33.3 6.7s-4.4 25.9 6.7 33.3l48 32c11 7.4 25.9 4.4 33.3-6.7s4.4-25.9-6.7-33.3l-48-32z"/></svg>
